static/assets/images/networks/oasis-mono.svg

<svg width="256" height="256" viewBox="0 0 256 256" fill="none" xmlns="http://www.w3.org/2000/svg">
<path fill-rule="evenodd" clip-rule="evenodd" d="M230.022 50.6853C210.634 25.9089 182.22 10.192 150.752 10.192C89.9089 10.2263 45.4005 66.7453 45.4005 128C45.4005 170.69 73.7458 202.638 105.248 202.638C108.199 202.638 111.116 202.364 113.999 201.849C92.8944 186.441 79.3737 158.404 79.3737 128C79.3737 79.5796 112.112 41.8316 150.717 41.8316C192.824 41.8316 222.095 83.6289 222.095 128C221.992 160.738 210.325 193.304 189.769 217.325C171.822 238.293 148.624 251.608 123.058 255.828C123.058 255.828 125.186 256 127.966 256C198.657 256 255.966 198.692 255.966 128C255.966 98.9684 246.288 72.2016 229.988 50.7196L230.022 50.6853ZM210.599 127.966C210.599 85.2761 182.254 53.3276 150.752 53.3276C147.801 53.3276 144.884 53.6021 142.001 54.1169C163.106 69.5249 176.626 97.5614 176.626 127.966C176.626 176.386 143.888 214.134 105.283 214.134C63.1764 214.134 33.9045 172.337 33.9045 127.966C34.0075 95.2279 45.6751 62.6617 66.2306 38.6402C84.1437 17.6729 107.376 4.3925 132.907 0.171585C132.907 0.171585 130.78 0 128 0C57.3083 0 0 57.3083 0 128C0 157.032 9.67721 183.798 25.9775 205.28C45.3662 230.057 73.7802 245.774 105.248 245.774C166.091 245.774 210.565 189.255 210.565 128L210.599 127.966Z" fill="black"/>
</svg>

<svg xmlns="http://www.w3.org/2000/svg" fill="none" viewBox="0 0 256 256"><path fill="#000" fill-rule="evenodd" d="M230.022 50.685c-19.388-24.776-47.802-40.493-79.27-40.493C89.909 10.226 45.4 66.745 45.4 128c0 42.69 28.346 74.638 59.848 74.638 2.951 0 5.868-.274 8.751-.789C92.894 186.441 79.374 158.404 79.374 128c0-48.42 32.738-86.168 71.343-86.168 42.107 0 71.378 41.797 71.378 86.168-.103 32.738-11.77 65.304-32.326 89.325-17.947 20.968-41.145 34.283-66.711 38.503 0 0 2.128.172 4.908.172 70.691 0 128-57.308 128-128 0-29.032-9.678-55.798-25.978-77.28zm-19.423 77.281c0-42.69-28.345-74.638-59.847-74.638-2.951 0-5.868.274-8.751.789 21.105 15.408 34.625 43.444 34.625 73.849 0 48.42-32.738 86.168-71.343 86.168-42.107 0-71.378-41.797-71.378-86.168.102-32.738 11.77-65.304 32.326-89.326C84.144 17.673 107.376 4.393 132.907.172c0 0-2.127-.172-4.907-.172C57.308 0 0 57.308 0 128c0 29.032 9.677 55.798 25.978 77.28 19.388 24.777 47.802 40.494 79.27 40.494 60.843 0 105.317-56.519 105.317-117.774z" clip-rule="evenodd"/></svg>
